en/_assets/wiki/svg/wysiwyg/nested-list-up.svg

<svg xmlns="http://www.w3.org/2000/svg" xmlns:xlink="http://www.w3.org/1999/xlink" width="16" height="16" class="yc-icon" fill="currentColor" stroke="none" aria-hidden="true"><path d="M2.85156 9.02148C3.10547 9.27539 3.5625 9.09766 3.5625 8.7168V3.8418C3.5625 3.48633 3.10547 3.30859 2.85156 3.5625L0.414062 6C0.363281 6.07617 0.3125 6.20312 0.3125 6.2793C0.3125 6.38086 0.363281 6.50781 0.414062 6.58398L2.85156 9.02148ZM11.2812 10.5449H0.71875C0.490234 10.5449 0.3125 10.748 0.3125 10.9512V11.3574C0.3125 11.5859 0.490234 11.7637 0.71875 11.7637H11.2812C11.4844 11.7637 11.6875 11.5859 11.6875 11.3574V10.9512C11.6875 10.748 11.4844 10.5449 11.2812 10.5449ZM11.3574 7.29492H5.49219C5.31445 7.29492 5.1875 7.44727 5.1875 7.625V8.20898C5.1875 8.38672 5.31445 8.51367 5.49219 8.51367H11.3574C11.5352 8.51367 11.6875 8.38672 11.6875 8.20898V7.625C11.6875 7.44727 11.5352 7.29492 11.3574 7.29492ZM11.2812 0.794922H0.71875C0.490234 0.794922 0.3125 0.998047 0.3125 1.20117V1.60742C0.3125 1.83594 0.490234 2.01367 0.71875 2.01367H11.2812C11.4844 2.01367 11.6875 1.83594 11.6875 1.60742V1.20117C11.6875 0.998047 11.4844 0.794922 11.2812 0.794922ZM11.3574 4.04492H5.49219C5.31445 4.04492 5.1875 4.19727 5.1875 4.375V4.95898C5.1875 5.13672 5.31445 5.26367 5.49219 5.26367H11.3574C11.5352 5.26367 11.6875 5.13672 11.6875 4.95898V4.375C11.6875 4.19727 11.5352 4.04492 11.3574 4.04492Z" fill="currentColor"></path></svg>

<svg xmlns="http://www.w3.org/2000/svg" width="16" height="16" fill="currentColor" aria-hidden="true" class="yc-icon">
    <path d="M2.852 9.021c.253.254.71.077.71-.304V3.842c0-.356-.457-.533-.71-.28L.414 6a.625.625 0 0 0-.101.28c0 .1.05.228.101.304l2.438 2.437Zm8.43 1.524H.718a.418.418 0 0 0-.406.406v.406a.4.4 0 0 0 .406.407H11.28a.418.418 0 0 0 .406-.407v-.406a.437.437 0 0 0-.406-.406Zm.075-3.25H5.492c-.178 0-.304.152-.304.33v.584c0 .178.126.305.304.305h5.865c.178 0 .33-.127.33-.305v-.584a.336.336 0 0 0-.33-.33Zm-.076-6.5H.72a.418.418 0 0 0-.406.406v.406a.4.4 0 0 0 .406.407h10.56a.418.418 0 0 0 .406-.407v-.406a.437.437 0 0 0-.406-.406Zm.076 3.25H5.492c-.178 0-.304.152-.304.33v.584c0 .178.126.305.304.305h5.865c.178 0 .33-.127.33-.305v-.584a.336.336 0 0 0-.33-.33Z"/>
</svg>
